X:1
T:Short Mass in C
T:Short Mass in C
T:Richard R. Terry
C:Richard R. Terry
%%score 1 { ( 2 5 ) | ( 3 4 ) }
L:1/8
Q:1/4=96
M:4/4
K:C
V:1 treble nm="MusicXML Part"
V:2 treble nm="Organ" snm="Org."
V:5 treble 
V:3 bass 
V:4 bass 
V:1
"^Larghetto"!mf! G3 G G2 G2 | A4 G4 |"^cresc." G2 (AB) c2 B2 | A4 G4 |"^cresc." G2 (AB) c2 G2 | %5
w: Ky- ri- e e-|lei- son,|Ky- ri- * e e-|lei- son,|Ky- ri- * e e-|
 A4 F2"^dim." G2 | (E2 DC) D4 | C4 z4 ||"^Cantors"!mf! (E2 A2) ^G2 A2 | B4 E4 | (E2 A2) ^G2 A2 | %11
w: lei- son, e-|lei- * * *|son.|Chri- * ste e-|lei- son,|Chri- * ste e-|
 B4 E4 | (E2 A2) =G2 F2 | (E2 d2) c2 B2 | A8 | G8 ||!mf! G3"^Tutti" G G2 G2 | A4 G4 | %18
w: lei- son,|Chri- * ste e-|lei- * son, e-|lei-|son.|Ky- ri- e e-|lei- son,|
"^cresc." G2 (AB) c2 B2 | A4 G4 |"^cresc." G2 (AB) c2 G2 | A4 F2"^dim. e rall." G2 | (E2 DC D4) | %23
w: Ky- ri- * e e-|lei- son,|Ky- ri- * e e-|lei- son, e-|lei- * * *|
 C8 |] %24
w: son.|
 !stemless!G2 !stemless!G2 !stemless!E2 !stemless!D2 !stemless!C2 !stemless!D2 !stemless!E2 !stemless!D3 !stemless!C3 || %25
w: Glo- ri- a in ex- cel- sis De- o,|
[M:4/4]"^Cantors"!mf![Q:1/4=160]"^Moderato" G6"^Gloria" G2 | G4 A4 | G6 G2 | A2 B2 c4 | %29
w: et in|ter- ra|pax ho-|mi- ni- bus|
"^dolce e poco rall" c6 E2 | F2 E2 D4 | C4 z4 | z4"^Maestoso"!f! !>!G4 | !>!c3 c !>!c4- | %34
w: bo- nae|vo- lun- ta-|tis.|Lau-|da- mus te,|
 c4 A2 G2 | !>!c2 cc !>!c4- | c4 A2 G2 | c3 c !>!c4 | !>!c4 c2 c2 | c3 c !>!c4 | z8 | %41
w: _ be- ne-|di- ci- mus te,|_ a- do-|ra- mus te,|glo- ri- fi-|ca- mus te.||
!mf! A3 A A4- | A2 E2 F2 E2 | A4 A4- | A2 (E2 F2) E2 | A4 c4 | c4 B2 A2 | B8 | E8 | %49
w: Gra- ti- as|_ a- gi- mus|ti- bi|_ prop- * ter|ma- gnam|glo- ri- am|tu-|am.|
!mf!"^Cantors express." c4 B2 B2 | (^G3 ^F) E4 | c4 B4 | (^G3 ^F) E4 | E4 (A2 c2) | %54
w: Do- mi- ne|De- * us,|Rex cae-|le- * stis,|De- us _|
!<(! c4!<)!!>)!!>(! B2 A2 | (c4 B3) B | E8 |"^Tutti." c4 B2 B2 | (^G3 ^F) E4 | c4 B4 | ^G3 ^F E4 | %61
w: Pa- ter om-|ni- * po-|tens.|Do- mi- ne|Fi- * li|u- ni-|ge- ni- te,|
"^cresc." E4 A4 | A4 ^G4 |"^dim." E4 A4 | A4 ^G4 |"^cresc." ^c4 A2 A2 | !>!^c4 A4 | ^c4 A4 | %68
w: Je- su|Chri- ste,|Je- su|Chri- ste.|Do- mi- ne|De- us,|Ag- nus|
 ^c4 A4 | A4 B2 A2 | (^G4 ^d4) | ^c8- | c8 | z8 | z8 | z8 | %76
w: De- i,|Fi- li- us|Pa- *|tris.|_||||
"^Cantors"[Q:1/4=120]"^Andante" z4!mf! E4 ||[K:A]!<(! E8!<)! | E6 E2 | d6 d2 | d4 E4 | %81
w: Qui|tol-|lis pec-|ca- ta|mun- di,|
 (E2 c2) (G2 A2) | F6 E2 | E2 F2 G2 A2 | B4 B2 E2 |!<(! E8!<)! | E6 E2 | d6 d2 | d4 E4 | %89
w: mi- * se- *|re- re,|mi- se- re- re|no- bis. Qui|tol-|lis pec-|ca- ta|mun- di,|
 !>!c3"^cresc." c c4 | =c2 c2 c2 c2 | B4 B4 | ^A4 A2 A2 ||[K:G] B4 B2 B2 | =c3 B B2 B2 | B3 B B4 | %96
w: su- sci- pe|de- pre- ca- ti-|o- nem|no- stram. Qui|se- des ad|dex- te- ram, ad|dex- te- ram|
 B4 B4 |"^dim." c6 B2 | A4 d4 |"^poco rall." e2 d2 d2 e2 | (d2 c2) (c2 B2) |"^rall." _B2 A2 A2 G2 | %102
w: Pa- tris,|mi- se-|re- re,|mi- se- re- re|no- * bis, _|mi- se- re- re,|
 =B2 G2 G2 E2 | (G4 A4) | G8 ||[K:C]"^Tutti."[Q:1/4=160]"^Tempo I"!f! c3 c c4- | %106
w: mi- se- re- re|no- *|bis.|Quo- ni- am|
 c2 !>!G2 !>!A2 !>!G2 | !>!c4 !>!c4- | c2 !>!G2 !>!A2 !>!G2 | !>!c3 c c2 !>!c2 | !>!c4 c2 c2 | %111
w: _ tu so- lus|san- ctus,|_ tu so- lus|Do- mi- nus, tu|so- lus al-|
 c3 c c4- | c4 E2 E2 | A4 A4- | A2 E2 F2 E2 | A3 A A4- | A2 E2 F2 EE | A6 c2 | (c2 A2) (F2 E2) | %119
w: tis- si- mus,|_ Je- su|Chri- ste.|_ Cum San- cto|Spi- ri- tu,|_ in glo- ri- a|De- i|Pa- * tris. _|
 D8 |"^rall. molto" C8 | z8 |"^ad lib." c8 | c8- | !fermata!c4 z4 |] %125
w: A-|men.||A-|men.|_|
[Q:1/4=54]"^Adagio"!mf! G3 G E2 E2 | A4 G4 |"^Sanctus" c2 BB A2 G2 | A3 A G4 | G2 Bc d2 cB | %130
w: San- ctus, san- ctus,|san- ctus,|Do- mi- nus De- us|Sa- ba- oth.|Ple- ni sunt cae- li et|
 A4 G4 | G2 Bc d2 cB | A4 G2!f! G2 | c2 (BA) G2 G2 | (A2 G)F E2 E2 | G2 (FE) D2 C2 | (C2 B,2) C4 || %137
w: ter- ra|glo- ri- a, glo- ri- a|tu- a. Ho-|san- na _ in ex-|cel- * * sis, Ho-|san- na _ in ex-|cel- * sis.|
[K:F]"^Cantors"[Q:1/4=52]"^Adagio"!p! (C2 F2) (A2 d2) | c4 G4 | (C2 F2) (A2 d2) | %140
w: Be- * ne- *|di- ctus,|be- * ne- *|
 c4"^cresc." G2 G2 | (A2 c2) =B2 c2 | d3 =B G2 c2 |"^dim." G2 FE D2 E2 | C6!f! C2 | %145
w: di- ctus qui|ve- * nit in|no- mi- ne, in|no- mi- ne Do- mi-|ni. Ho-|
"^Tutti."[Q:1/4=92]"^Piu mosso" B3 A G2 F2 | (G2 A2) F2 F2 | d3 c B2 A2 | (B2 c2) A2 A2 | %149
w: san- na in ex-|cel- * sis, Ho-|san- na in ex-|cel- * sis, Ho-|
 G3 A B2 d2 | (c2 A2) F2 BA |"^rall. e dim" G8 | F8 |] %153
w: san- na in ex-|cel- * sis, in ex-|cel-|sis.|
[K:C]"^Cantors"[Q:1/4=96]"^Larghetto"!mf! G4 A4 | G4 A2 A2 | G2 AB c2 B2 |"^Agnus Dei" A4 G4 | %157
w: A- gnus|De- i, qui|tol- lis pec- ca- ta|mun- di,|
"^cresc." G2 A2 c2 B2 | d2 c2 ^G2 A2 |"^dim." B2 G2 E2 A2 | A4 G4 ||"^Tutti." G4 A4 | G4 A2 A2 | %163
w: mi- se- re- re,|mi- se- re- re,|mi- se- re- re|no- bis.|Ag- nus|De- i, qui|
 G2 AB c2 B2 | A4 G4 |"^cresc." G2 A2 c2 B2 | d2 c2 ^G2 A2 |"^dim." B2 G2 E2 A2 | A4 G4 || %169
w: tol- lis pec- ca- ta|mun- di,|mi- se- re- re,|mi- se- re- re,|mi- se- re- re|no- bis.|
"^Cantors" A6 A2 | G4 G2 c2 | A2 AA A2 (Bc) | c4 B4 |"^Tutti."!mf! (c2 E2) (F2 G2) | %174
w: Ag- nus|De- i, qui|tol- lis pec- ca- ta _|mun- di,|do- * na _|
 (A2 F2) (C2 D2) |"^dim." (E6 D2) | C8 |[Q:1/4=90]"^Adagio" z8 |!p! C8 | C8- | C2 z2 z4 |] %181
w: no- * bis _|pa- *|cem,||pa-|cem.|_|
V:2
!mf! [CEG-]2 [B,DG]2 [CG]2 [CEG-]2 | G2 F2- F2 E2 |"^cresc." D2 [EA][DB] [Cc]2 [DB]2 | A4 [B,G]4 | %4
"^cresc." G2 AB c2 G2 | A4 F2"^dim." G2 | E2 DC D4 | C2 D2 E4 ||!mf! E2- [EA]2 ^G2 A2 | B4 E4- | %10
 E2 A2 ^G2 A2 | B4 E4 | E2 A2 =G2 F2 | E2 d2 c2 B2 | A8 | G8 ||!mf! [CEG-]2 [B,DG]2 [CG]2 [CEG-]2 | %17
 G2 F2- F2 E2 |"^cresc." D2 [EA][DB] [Cc]2 [DB]2 | A4 [B,G]4 |"^cresc." G2 AB c2 G2 | %21
 A4 F2"^dim. e rall." G2 | E2 DC D4 | C8 |] z20 ||[M:4/4]!mf! G8 | G4 A4 | G6 G2 | %28
 [EA]2 [DB]2 [Cc]4 | [CEc]6 [CE]2 | F2 E2 D4 |"^a tempo" C2 D2 E4- | E2 F2!f! [DG]4 | %33
 [Cc]4 [Cc]4- | [Cc]4 [FA]2 [DG]2 | [Cc]4 [Cc]4- | [Cc]4 [FA]2 [DG]2 | [Cc]4 [Cc]4- | %38
 [Cc]4 [Acd]4 | e4 c4 |!>(! G4 E4!>)! |!mf! [A,A]4 [A,A]4- | [A,A]2 E2 [DF]2 E2 | [A,A]4 [A,A]4- | %44
 [A,A]2 E2 [DF]2 E2 | [A,C]2 [B,D]2 [CE]2 [DF]2 | [CE-]2 [CEA]2 [DB]2 [Ec]2 | B8 | e2 d2 c2 B2 | %49
!mf! [Ec]4 [^DB]4 | ^G3 ^F E4 | c4 B4 | ^G3 ^F E4 | E4 A2 c2 | [ce]4 [Bd]2 [Ac]2 | [A-c]4 [AB]4 | %56
 [E^GB]8 | [Ec]4 [^DB]4 | ^G3 ^F E4 | c4 B4 | ^G3 ^F E4- | E2 A2 ^c2 ^f2 | e8 | E2 A2 ^c2 ^f2 | %64
 e8 | [^C^G^c]2 [CGc]2 z2 [CAc]2- | [CAc]2 [^CA^c]4 [CAc]2- | [CAc]2 [^CA^c]4 [CAc]2- | %68
 [CAc]2 [^CA^c]4 [CAc]2 | z2 [^C^FA]4 [CFA]2 | z2 [^B,^F^G]4 [B,FG]2 | z2 [^CE^G]4 [CEG]2 | %72
 !>!^G8 |"^Solo stop" (^G4 ^F2 ^C2 | E4 ^D4 | E2) E4 E2 |!p! [DE]2 [DE]4 [DE]2 || %77
[K:A] E2 F2 G2 A2 | B2 A2 e2 A2- | A2 G2 G2- [Gd-]2 | d8 | E2 c2 G2 A2 | F6 E2 | E2 F2 G2 A2 | %84
 B4- B2 E2 | E2 F2 G2 A2 | B2 A2 e2 A2- | A2 G2 G2- [Gd-]2 | d8 | c2 A2 E2 C2"^cresc." | %90
 =c2 A2 E2 =C2 | B2 =G2 E2 B,2 | ^A2 =G2 E2 ^A,2 ||[K:G] B2 A2 F2 A2 | =c2 B2 B2 e2 | %95
 e2 ^d2 d2 f2 | f2 e2 e2 g2 | g2 f2 f2 e2 | e2 d4 d2 | e2 d4 e2 | d2 c2 c2 B2 | _B2 A2 A2 G2 | %102
 [G=B]2 [DG]2 G2 E2 | G6 F2 | [B,DG]2 G2 G2 G2 ||[K:C]!f! [Cc]4 [Cc]4- | [Cc]2 G2 [FA]2 G2 | %107
 [Cc]4 [Cc]4- | [Cc]2 G2 [FA]2 G2 | [Cc]4 [Cc]4 | [D_Acd]4 [DAcd]4 | e4 e4 | G4 E4 | %113
 [A,A]4 [A,A]4- | [A,A]2 E2 [DF]2 [B,E]2 | [A,A]4 [A,A]4- | [A,A]2 E2 [DF]2 [B,E]2 | %117
 [CEA]6 [CEc]2 | c2 A2 F2 E2 | D8 | C2 C2 D2 E2 | F2 G2 A2 B2 | [Ac]2 B2 c2 d2 | [CEce]8- | %124
 !fermata![CEce]8 |]!mf! G4 E4 | A4 G4 | [EAc]2 [EGB]2 [CFA]2 [CEG]2 | ([CA]4 [DB]4) | %129
 [CG]2 [FG-B][EGc] [DGd]2 [EGc][DFB] | A4 [B,G]4 | [CG]2 [FG-B][EGc] [FGd]2 [EGc][DFB] | %132
 [EA]2 [FA]2 G2!f! G2 | c2 BA G2 G2 | A2 GF E2 E2 | G2 FE D2 =C2 | C2 B,2 C4 || %137
[K:F]!p! C2 F2 A2 d2 | c4 G4 | C2 F2 A2 d2 | c4 G4 | A2 c2 =B2 c2 | d3 =B G2 c2 | G2 FE D2 E2 | %144
 C6!f! C2 | [G_B]3 [FA] [EG]2 F2 | G2 A2 F2 F2 | d3 c B2 A2 | B2 c2 A2 A2 | G3 A B2 d2 | %150
 c2 A2 F2 BA | [B,G]8 | F4 F4 |][K:C]!mf! [EG]4 [FA]4 | [EG]4 [FA]4 | %155
 [CEG]2 [EG-A][DGB] [CGc]2 [DGB]2 | A4 [B,G]4 | G2 [^FA]2 [=Fc]2 [FB]2 | %158
 [FBd]2 [EAc]2 [DE^G]2 [CEA]2 | [GB]2 [EG]2 [CE]2 [CEA]2 | A4 G4 || [EG]4 [FA]4 | [EG]4 [FA]4 | %163
 [CEG]2 [EG-A][DGB] [CGc]2 [DGB]2 | A4 [B,G]4 | G2 [^FA]2 [=Fc]2 [FB]2 | %166
 [FBd]2 [EAc]2 [DE^G]2 [CEA]2 | [GB]2 [EG]2 [CE]2 [CEA]2 | A4 G4 || A6 Bc | d2 ef [dg]2 c2 | %171
 f2 ef d4 |!<(! d2 ef g2 a!<)!b | [cc']2!mf! [E_B-e]2 [FB-d]2 [GBc]2 | [FAc]4 [A,C]2 [_A,CD]2 | %175
 E6 D2 | C2 C2 D2 E2 |!p! F2 G2 A2 B2 | c2 B2 c2 d2 | [EGce]8- | [EGce]2 z2 z4 |] %181
V:3
 x8 | x8 | x8 | x8 | x8 | z4 z2 G,2 | G,2 F,E, F,4 | E,2 F,2 G,2 ^G,2 || A,4 B,2 A,2 | A,4 ^G,4 | %10
 A,4 D2 C2 | B,2 A,2 ^G,4 | A,4 _B,2 A,2 | ^G,4 A,2 G,2 | A,4 A,2 B,C | C4 B,4 || x8 | x8 | x8 | %19
 x8 | x8 | z4 z2 G,2 | G,2 F,E, F,4 | [F,A,]2 [E,G,][D,F,] [E,G,]4 |] z20 ||[M:4/4] x8 | x8 | x8 | %28
 x8 |"^dolce e poco rall" G,,2 C,2 E,2 G,2 | D,2 E,2 F,4 |!<(! E,2 F,2 G,2 ^G,2 | x8!<)! | x8 | %34
 x8 | x8 | x8 | x8 | x8 | x8 | x8 | x8 | x8 | x8 | x8 | A,,4 A,4 | A,,4 A,4 | x8 | x8 | %49
 A,,2 A,2 ^F,2 B,2 | B,2 A,2 ^G,2- [G,B,]2 | A,2 C2 ^F,2 B,2- | B,2 A,2 ^G,4 | x8 | x8 | x8 | x8 | %57
 A,,2 A,2 ^F,2 B,2 | B,2 A,2 ^G,2- [G,B,]2 | A,2 C2 ^F,2 B,2- | B,2 A,2 ^G,4 |"^cresc." ^C8 | D8 | %63
"^dim." ^C4 C2 =C2 | B,4 D4 |"^cresc." x8 | x8 | x8 | x8 | x8 | x8 | x8 | x8 |"^molto rall." x8 | %74
 z2 [A,B,]4 [A,B,]2 | [^G,B,]2 z2 z4 | z8 ||[K:A] E,8- | E,8- | E,8- | E,8 | E,8 | F,2 A,2 G,4 | %83
 x8 | x8 | A,4 E,4 | E,8- | E,8- | E,8 | E,8- | E,8- | E,8- | E,8 ||[K:G] F,8 | =G,4 E2 B,2 | %95
 B,6 ^D2 | ^D2 E4 B,2 |"^dim." A,6 B,2 | C4 B,2 A,2 |"^poco rall." B,4 G,4 | G,8 | %101
"^rall." G,2 A,4 ^A,2 | x8 | x8 | x8 ||[K:C] x8 | x8 | x8 | x8 | x8 | x8 | x8 | x8 | x8 | x8 | x8 | %116
 x8 | x8 | x8 | A,4 G,2 F,2 |"^rall. molto" E,4 G,4 | x8 | x8 | x8 | x8 |] G,4 G,2 ^G,2 | A,4 B,4 | %127
 x8 | x8 | x8 | x8 | x8 | x8 | C2 F,A, D2 CB, | A,2 D,F, B,2 A,2 | A,2 A,G, F,3 E, | %136
 D,E, F,2 E,4 ||[K:F]"^senza ped." A,4 C,4 | x8 | A,4 C2 _C2 | x8 |"^ped." A,2 G,2- G,2 G,2 | %142
 G,4 =B,2 [G,C]2 |"^dim." A,2 A,G, A,2 G,F, | [E,G,]2 [D,F,]2 [E,G,]2 z2 | E,2 E,F, G,2 A,2 | %146
 D,2 E,2 D,2 A,2 | B,3 G, F,2 F,2 | F,2 G,2 F,2 C2 | D4 D4 | G,2 C2 A,2 DC |"^rall. e dim" x8 | %152
 x8 |][K:C] x8 | x8 | x8 | x8 |"^cresc." x8 | x8 |"^dim." B,2 B,2 A,2 G,2 | G,2 ^F,2 B,4 || x8 | %162
 x8 | x8 | x8 |"^cresc." x8 | x8 |"^dim." B,2 B,2 A,2 G,2 | G,2 ^F,2 G,2 G,2 || C6 B,A, | B,6 C2 | %171
 C4 A,2 B,C | C4 B,2 A,G, | x8 | x8 |"^dim." G,2 E,2 F,4 |"^rall." E,4 G,4 | F,4 F,4 | x8 | x8 | %180
 x8 |] %181
V:4
 C,2 G,F, E,2 C,2 | F,,3 A,, C,4 | B,,2 C,B,, A,,2 B,,2 | C,2 F,,2 G,,2 G,F, | E,2 D,2 C,3 B,, | %5
 A,,2 B,,^C, D,2 B,,2 | C,2 F,,A,, G,,4 | C,6 B,,2 || A,,3 C, E,D, C,2 | D,2 F,2 E,2 D,2 | %10
 C,4 B,,2 A,,2 | ^G,,2 B,,2 E,2 D,2 | C,6 D,2 | E,4 A,,2 B,,2 | C,2 A,,2 D,4 | G,,8 || %16
 C,2 G,F, E,2 C,2 | F,,3 A,, C,4 | B,,2 C,B,, A,,2 B,,2 | C,2 F,,2 G,,2 G,F, | E,2 D,2 C,3 B,, | %21
 A,,2 B,,^C, D,2 B,,2 | C,2 F,,A,, G,,4 | [C,,C,]8 |] x20 ||[M:4/4] G,2 F,2 E,2 D,2 | %26
 C,2 B,,2 A,,2 C,2 | E,2 D,2 C,2 B,,2 | C,2 B,,2 A,,2 D,2 | G,,8- | G,,8 | C,6 B,,2 | %32
 [A,,A,]2 A,2 G,4 | C,2 D,2 E,2 D,2 | C,2 E,2 F,2 G,2 | C,2 D,2 E,2 D,2 | C,2 E,2 F,2 G,2 | %37
 C,2 D,2 E,2 D,2 | C,2 E,2 F,4 | C,2 D,2 E,2 D,2 | C,2 B,,2 A,,2 ^G,,2 | A,,2 B,,2 C,2 B,,2 | %42
 A,,2 C,2 D,2 E,2 | A,,2 B,,2 C,2 B,,2 | A,,2 C,2 D,2 E,2 | x8 | x8 | A,,4- [A,,A,]4 | [^G,,^G,]8 | %49
 A,,4 B,,4 | E,8 | E,8- | E,8 | A,8 | [D,A,]8 | E,2 A,2 ^F,2 B,,2 | E,2 D,2 C,2 B,,2 | A,,4 B,,4 | %58
 E,8 | E,8- | E,8 | A,4 E,4 | B,4 E,4 | A,4 E,4 | B,4 E,4 | ^E,4 ^F,4 | =F,8 | E,8 | ^D,8 | ^D,8 | %70
 ^G,8 | ^C,8 | ^C,8 | ^F,,8 | B,,8 | E,,2 z2 z4 | x8 ||[K:A] A,,8 | C,8 | B,,8 | A,,4 G,,4 | %81
 A,,4 C,4 | B,,4 E,4 | A,8 | [F,A,]4 [E,G,]4 | A,,8 | C,8 | B,,8 | A,,4 G,,4 | A,,8- | A,,8 | %91
 B,,8 | C,8 ||[K:G] ^D,8 | E,8 | F,6 A,2 | G,8 | A,6 G,2 | F,8 | G,8 | C,8 | ^C,8 | D,4 A,,4 | %103
 D,8 | G,,2 G,2 G,2 G,2 ||[K:C] C,2 D,2 E,2 D,2 | C,2 E,2 F,2 G,2 | C,2 D,2 E,2 D,2 | %108
 C,2 E,2 F,2 G,2 | C,2 D,2 E,2 D,2 | [F,,F,]8 | C,2 D,2 E,2 D,2 | C,2 B,,2 A,,2 ^G,,2 | %113
 A,,2 B,,2 C,2 B,,2 | A,,2 C,2 D,2 E,2 | A,,2 B,,2 C,2 B,,2 | A,,2 C,2 D,2 E,2 | A,,2 C,2 E,2 A,2 | %118
 D,4 D,2 E,2 | F,2 D,2 G,2 G,,2 | C,4 _B,,4 | [A,,F,]4 [F,,F,]4 | F,4 F,,4 | [C,,C,]8- | %124
 !fermata![C,,C,]8 |] G,,2 B,,2 C,2 B,,2 | A,,2 C,2 E,4 | A,2 E,2 F,2 C,2 | A,,2 F,,2 G,,2 G,F, | %129
 E,2 D,C, B,,2 C,D, | E,2 D,2 G,,2 G,F, | E,2 D,C, B,,2 C,D, | E,2 D,2 G,,2 F,2 | %133
 E,2 D,C, B,,2 C,2 | C,2 B,,A,, ^G,,2 A,,2 | D,3 E, F,2 F,,2 | G,,4 [C,,C,]4 ||[K:F] F,4 C,4 | %138
 B,4 [C,B,]4 | F,4 C,4 | B,4"^cresc." [C,B,]4 | F,2 E,2 D,2 C,2 | =B,,2 D,2 F,2 E,2 | %143
 D,2 D,,E,, F,,2 G,,2 | C,6 C,2 | C,8 | B,,2 A,,2 D,2 D,2 | B,,3 C, D,2 F,2 | D,2 C,2 F,2 F,2 | %149
 B,3 A, G,2 F,2 | E,2 C,2 D,2 G,,A,, | B,,2 G,,2 C,4 | F,,8 |][K:C] C,8- | C,8- | %155
 C,3 B,, A,,2 B,,2 | C,2 F,,2 G,,2 G,F, | E,2 _E,2 D,2 G,,2 | ^G,,2 A,,2 B,,2 C,2 | D,2 E,2 A,,4 | %160
 D,4 G,2 G,,2 || C,8- | C,8- | C,3 B,, A,,2 B,,2 | C,2 F,,2 G,,2 G,F, | E,2 _E,2 D,2 G,,2 | %166
 ^G,,2 A,,2 B,,2 C,2 | D,2 E,2 A,,4 | D,4 G,,2 G,2- || G,4 F,4- | F,4 E,4 | [D,A,]4 F,4 | %172
 G,4 [F,D]4 | [E,G,C]2 C,2 D,2 E,2 | F,4 F,,4 | G,,8 | C,4 _B,,4 | A,,4 F,,4 | F,4 F,,4 | %179
 [C,,C,]8- | [C,,C,]2 z2 z4 |] %181
V:5
 x8 | [CA]4 [CG]4 | G8 | [EG]2 [DF-][CF-] F2 ED | C2 F2 E3 D | ^C2 DE D2 D2 | C2 A,C C2 B,2 | %7
 C6 D2 || C4 E2 E2 | F2 D2 E4 | E4 E4 | E2 ^D2 E4 | E4 E2 D2 | D3 F E4 | E2 ^FG- G2 F2 | [DG]8 || %16
 x8 | [CA]4 [CG]4 | G8 | [EG]2 [DF-][CF-] F2 ED | C2 F2 E3 D | ^C2 DE D2 D2 | C2 A,C C2 B,2 | x8 |] %24
 x20 ||[M:4/4] G6 F2 | [CE]4 [CE]4 | [B,E]4 [CE]2 D2 | G6 F2 | x8 | C6 B,2 | C6"^Tutti" D2 | %32
 C6 B,2 | E2 F2 G2 F2 | E2 G2 C2 B,2 | E2 F2 G2 F2 | E2 G2 C2 B,2 | E2 F2 G2 F2 | E2 G2 D4 | %39
 [EGc]2 F2 G2 F2 | E2 D2 C2 [B,D]2 | C2 D2 E2 D2 | C2 A,2 A,2 [^G,B,]2 | C2 D2 E2 D2 | %44
 C2 A,2 A,2 [^G,B,]2 | x8 | x8 | D2 F2 E2 D2 | [E-B]4 E4 | x8 | E2 ^D2 E4 | E2 A2 ^D2 ^F2 | %52
 E2 ^D2 E2 =D2 | C2 [B,D]2 [CE]2 [EA]2 | F2 F4 F2 | E4 ^D4 | x8 | x8 | E2 ^D2 E4 | E2 A2 ^D2 ^F2 | %60
 E2 ^D2 E2 =D2 | E4 A4 | A2 ^F2 ^G2 E2 | E4 A4 | A2 ^F2 ^G2 E2 | x8 | x8 | x8 | x8 | x8 | x8 | x8 | %72
 z2 [B,^CE]4 [B,CE]2 | z2 [A,^C]4 A,2 | x8 | x8 | x8 ||[K:A] C8 | E8 | D8 | F4 E4 | [CE]4 E4 | D8 | %83
 [CE]4 [CE]4 | ^D4 E2 =D2 | C8 | E8 | D8 | F4 E4 | [Cc]8 | [=C=c]8 | [B,B]8 | [^A,^A]8 || %93
[K:G] [B,B]8 | G8 | A6 B2 | B8 | c6 B2 | A4 B2 c2 | [GB]4 [=FB]4 | E4 E4 | E8 | =B,2 B,2 C4 | %103
 A,2 B,2 C4 | x8 ||[K:C] E2 F2 G2 F2 | E2 C2 C2 [B,D]2 | E2 F2 G2 F2 | E2 C2 C2 [B,D]2 | %109
 E2 F2 G2 F2 | x8 | [EGc]2 F2 G2 F2 | E2 D2 C2 B,2 | C2 D2 E2 D2 | C2 A,2 A,2 ^G,2 | C2 D2 E2 D2 | %116
 C2 A,2 A,2 ^G,2 | x8 | [CF]4 C4 | C4 B,4 | C2 C6 | C4 F4 | F4 [F_Ac]4 | x8 | x8 |] B,2 D2 C2 D2 | %126
 C2 E2 E4 | x8 | E2 FE C2 B,2 | x8 | [CE]2 [DF-][CF-] F2 ED | x8 | C2 DC [B,F]2 [B,D]2 | %133
 G2 FE F2 E2 | E2 DC D2 ^C2 | E2 D^C A,4 | G,4 G,4 ||[K:F] C4 [CF]2 [FA]2 | [EG]2 [DF]2 E2 DE | %139
 C4 [CF]2 [F_A]2 | [EG]2 [DF]2 E2 DE | F2 G2 F2 E2 | D4 D2 C2 | C4 C2 =B,2 | C6 z2 | C8 | %146
 D2 ^C2 D2 D2 | D3 E F4 | F2 E2 F2 F2 | G3 ^F G2 A2 | G2 E2 D2 FF | D2 EF E2 DE | %152
 [B,D]2 [A,C][G,B,] [A,C]4 |][K:C] C2 B,2 A,2 B,2 | C2 B,2 A,2 B,2 | x8 | [EG]2 [DF-][CF-] F2 ED | %157
 C6 D2 | x8 | x8 | [CD]4 D2 =F2 || C2 B,2 A,2 B,2 | C2 B,2 A,2 B,2 | x8 | [EG]2 [DF-][CF-] F2 ED | %165
 C6 D2 | x8 | x8 | [CD]4 [B,D]4 || E2 FE D3 A | [Gd]4- G4 | F4 A4 | G4 G2 AB | x8 | x8 | C4 B,4 | %176
 C2 C2 C4 | C4 F4 | [FA]4 [F_A]2 [FAc]2 | x8 | x8 |] %181

